Resources/app/storefront/src/assets/icon-pack/cinema/ic-heart.svg

<?xml version="1.0" encoding="UTF-8"?>
<svg width="25px" height="20px" viewBox="0 0 25 20" version="1.1" xmlns="http://www.w3.org/2000/svg" xmlns:xlink="http://www.w3.org/1999/xlink">
    <title>A20B28C7-3979-46C2-8D06-81E0A2EA92FE@1x</title>
    <defs>
        <path d="M19.0557519,2.91759313 L19.2148521,2.92007246 C19.6368796,2.94576987 20.0377935,3.12293437 20.3408953,3.4222941 L20.3408953,3.4222941 L20.424606,3.50497139 L23.6406787,8.66403306 L23.7299319,8.77720991 C24.2262091,9.45925413 24.1642008,10.4187483 23.5439585,11.0315096 L23.5439585,11.0315096 L17.3986944,17.0976329 C16.1263344,18.3289628 14.5377882,19.7206736 12.6316206,21.2748978 L12.6431032,21.2645846 C12.5751663,21.322811 12.5037864,21.3681385 12.4288031,21.4036671 C12.4077342,21.4134034 12.3865789,21.4225701 12.3652149,21.430963 C12.3504332,21.4369108 12.3353365,21.4424002 12.3201382,21.4475158 C12.2958927,21.4556186 12.2714753,21.4628305 12.2468891,21.4690844 C12.2334246,21.4725083 12.2196298,21.4756988 12.2057833,21.4785944 C12.1792791,21.4841655 12.1529812,21.4885733 12.126597,21.491923 C12.1143418,21.4934325 12.101637,21.4948037 12.0889131,21.4959324 C12.0686114,21.4977778 12.04857,21.4989423 12.0285264,21.4995061 C12.0072811,21.5000749 11.9855806,21.4999981 11.9638959,21.499219 C11.9494039,21.4987127 11.9354081,21.4979058 11.9214366,21.4968071 C11.8975199,21.4949298 11.8731994,21.4921398 11.8489818,21.4884569 C11.829298,21.4854608 11.8098222,21.481905 11.7904567,21.4777742 C11.7715174,21.4737285 11.7524979,21.4690849 11.7335969,21.4638741 C11.7148739,21.4587486 11.6963933,21.4530842 11.6780691,21.4468803 C11.6585643,21.4401847 11.6392495,21.4329516 11.6201228,21.4250975 C11.6019873,21.417828 11.5837617,21.4097347 11.5657567,21.4010799 C11.5476805,21.3921249 11.5295562,21.3826889 11.5116678,21.3726565 C11.4489013,21.3378965 11.3898387,21.2960654 11.3351512,21.2473244 C11.329784,21.2418584 11.3242929,21.2368576 11.3188434,21.2317843 L9.92132486,19.9248227 C8.42465452,18.5183097 7.11505297,17.2639917 5.99227526,16.1615949 L0.796809451,11.0315028 C0.176704423,10.4186646 0.114723055,9.45921259 0.610987909,8.77719369 L0.699497088,8.6643026 L3.91630829,3.50496287 L4.00001904,3.42228558 C4.30312077,3.12292585 4.70403474,2.94576135 5.12606221,2.92006394 L5.28516241,2.91758461 L8.5848994,3.01536493 C8.97280508,3.02685965 9.3445885,3.16620222 9.64272342,3.40950032 L9.76581872,3.52006591 L9.88692048,3.66467476 L12.0391032,6.05958461 L14.4847051,3.62245723 L14.5750956,3.52007443 L14.6981909,3.40950884 C14.9963258,3.16621074 15.3681092,3.02686817 15.7560149,3.01537345 L15.7560149,3.01537345 L19.0557519,2.91759313 Z M18.9525608,4.92202398 L15.940993,5.01041233 L12.7927827,8.10897422 L12.7850351,8.12003922 C12.767981,8.14160577 12.7499491,8.16256624 12.7309519,8.18285203 L12.7164128,8.1973676 C12.7091473,8.20485198 12.7017857,8.21220158 12.6943313,8.21941594 C12.6793831,8.23437006 12.662915,8.24923015 12.6458596,8.26361282 C12.6301021,8.2766891 12.6144169,8.2891754 12.5984301,8.30113472 C12.5883481,8.30875025 12.5778229,8.3162942 12.5671092,8.3236665 L12.5439707,8.33910066 C12.5272428,8.34994924 12.5102393,8.36026045 12.4929868,8.3700308 L12.5671092,8.3236665 C12.5253602,8.35239491 12.4821994,8.37751859 12.4379957,8.39910566 C12.4219827,8.40672839 12.4060583,8.41395717 12.3899786,8.42075456 C12.3652447,8.43150049 12.3401014,8.44097867 12.3147415,8.44939156 C12.308526,8.45111118 12.3018833,8.45323575 12.2952214,8.45529017 C12.2635334,8.46541614 12.2320455,8.47344098 12.2003723,8.47989427 C12.1900412,8.48166374 12.1790111,8.48373418 12.1679508,8.48561938 C12.1416256,8.49039057 12.1156155,8.49373015 12.0895708,8.49604171 C12.0724286,8.49737838 12.0553989,8.49848133 12.0383446,8.49915024 C12.0164026,8.50008321 11.9943535,8.50017512 11.9723464,8.49954335 C11.9536841,8.49907442 11.9350068,8.49805716 11.916351,8.4965148 C11.8960976,8.49465395 11.8758164,8.49231247 11.8556294,8.48935757 C11.8370326,8.48692929 11.8186189,8.48373553 11.800274,8.4800173 C11.7781294,8.47516023 11.7557994,8.46981288 11.7336663,8.4637039 C11.7187778,8.46000285 11.7044038,8.455684 11.6901026,8.45102927 C11.6677155,8.44333287 11.6453542,8.43517503 11.6232813,8.426217 C11.6083069,8.42050947 11.593235,8.41394345 11.5782836,8.40698055 C11.5540304,8.39539282 11.5303817,8.38324588 11.507194,8.37013168 C11.4671692,8.34762028 11.4281801,8.32183424 11.3905888,8.29296373 L11.4720325,8.34928091 C11.451295,8.33640044 11.4309701,8.32271783 11.4111075,8.30824225 L11.3905888,8.29296373 C11.3795941,8.28451974 11.3688236,8.27589215 11.3582781,8.26708858 C11.3450281,8.25584501 11.3317128,8.24408076 11.3186746,8.2319189 C11.3008045,8.21565002 11.2837466,8.19862334 11.2674152,8.18111077 C11.2612818,8.1738735 11.254635,8.16649513 11.2480821,8.1589987 L11.2342695,8.14373025 C11.2173398,8.12364324 11.2013028,8.10299931 11.1861661,8.08185689 L11.1764301,8.06673966 L8.38504069,5.01068186 L5.38973637,4.9215864 L2.36685488,9.77163181 L7.06644894,14.4124632 C8.42466168,15.7539079 10.0828168,17.3398718 12.0404193,19.1698022 C13.7570397,17.7502245 15.1781101,16.482946 16.3047955,15.3701704 L16.3047955,15.3701704 L21.9747352,9.77136228 L18.9525608,4.92202398 Z" id="path-1"></path>
    </defs>
    <g id="Lizenzen-&amp;-Assets-✅" stroke="none" stroke-width="1" fill="none" fill-rule="evenodd">
        <g id="Icons" transform="translate(-435.000000, -653.000000)">
            <g id="Group" transform="translate(435.000000, 651.000000)">
                <mask id="mask-2" fill="white">
                    <use xlink:href="#path-1"></use>
                </mask>
                <use id="Mask" fill="#071C31" fill-rule="nonzero" xlink:href="#path-1"></use>
                <g mask="url(#mask-2)">
                    <g transform="translate(0.000000, 1.000000)">
                        <rect id="Rectangle" fill="#071C31" x="0" y="0" width="24" height="24"></rect>
                    </g>
                </g>
            </g>
        </g>
    </g>
</svg>

<?xml version="1.0" encoding="UTF-8"?><svg width="25" height="20" xmlns="http://www.w3.org/2000/svg" xmlns:xlink="http://www.w3.org/1999/xlink"><defs><path d="M19.06 2.92h.15c.43.03.83.2 1.13.5l.08.08 3.22 5.16.09.12c.5.68.43 1.64-.19 2.25L17.4 17.1a76.1 76.1 0 0 1-4.77 4.17h.01a.96.96 0 0 1-.61.23 1.03 1.03 0 0 1-.52-.13.97.97 0 0 1-.17-.12l-.02-.02-1.4-1.3c-1.5-1.41-2.8-2.67-3.93-3.77L.8 11.03a1.73 1.73 0 0 1-.18-2.25l.09-.12L3.92 3.5 4 3.42c.3-.3.7-.47 1.13-.5h.16l3.3.1c.38 0 .75.15 1.05.39l.13.11.12.14 2.15 2.4 2.44-2.44.1-.1.12-.11c.3-.24.67-.38 1.06-.4l3.3-.1Zm-.1 2-3.02.09-3.15 3.1v.01a1 1 0 0 1-.06.06l-.01.02a1 1 0 0 1-.15.12l-.03.02a1 1 0 0 1-.05.03l.08-.05a1 1 0 0 1-.26.13h-.01a.9.9 0 0 1-.1.03h-.03a.87.87 0 0 1-.25.02 1.14 1.14 0 0 1-.34-.1 1.16 1.16 0 0 1-.19-.1l.08.05a1 1 0 0 1-.06-.04l-.02-.02a1.02 1.02 0 0 1-.12-.1c0-.02-.02-.02-.02-.03l-.02-.02a1 1 0 0 1-.04-.06l-.01-.01L8.38 5 5.4 4.92 2.37 9.77l4.7 4.64c1.35 1.34 3.01 2.93 4.97 4.76a66.1 66.1 0 0 0 4.26-3.8l5.67-5.6-3.02-4.85Z" id="a-heart"/></defs><g transform="translate(0)" fill="none" fill-rule="evenodd"><mask id="b-heart" fill="#fff"><use xlink:href="#a-heart"/></mask><use fill="#071C31" fill-rule="nonzero" xlink:href="#a-heart"/><g mask="url(#b-heart)"><path fill="currentColor" d="M0 1h24v24H0z"/></g></g></svg>
